X:1
T:Title
%%score 1 2 3 4
L:1/8
Q:1/4=170
M:4/4
K:Ab
V:1 treble nm="Church Organ, Church Organ"
V:2 treble nm="French Horn, French Horn"
V:3 bass nm="Trombone, Trombone"
V:4 bass nm="Tuba, Tuba"
V:1
 A4 c4 | d4 B4 | c4 A4 | B4 G4 | B4 c4 | =d4 e4 | B4 c4 | B2 A2 G4 | B4 e4 | c4 d4 | c4 B4 | %11
w: By~Supplement~to~the~New~Version,~1708 *|||||||||||
 A4 G4 | B4 c4 | d4 e4 | A4 A4- | A2 G2 A4 |] %16
w: |||||
V:2
 E4 E4 | D4 E4 | C4 C4 | F4 E4 | E4 E4 | F4 E4 | E4 E4 | =D4 E4 | E4 E4 | F4 F2 G2 | A4 F4 | %11
w: O~ bless|ed~ day,~|when~ first~|was~ pour'd~|The~ Blood~|of~ our~|Re deem|ing~ Lord:~|O~ bless|ed~ day,~ *|when~ first~|
 C2 D2 E4 | E4 E4 | E4 E4 | F4 E4 | E4 E4 |] %16
w: be * gan~|His~ suf|ferings~ borne~|for~ sin|* man!~|
V:3
 C4 A,4 | A,4 B,4 | G,4 A,4 | D4 B,4 | G,4 C4 | B,4 B,4 | B,4 A,2 G,2 | F,4 E,4 | G,4 G,4 | %9
 =A,4 B,4 | E4 D4 | A,4 B,4 | G,4 A,4- | A,2 G,2[K:treble] A,4 | D4 C4 | B,4 C4 |] %16
V:4
 A,4 A,4 | F,4 G,4 | E,4 F,4 | D,4 E,4 | G,4 A,4 | A,4 G,4 | G,,4 A,,4 | B,,4 E,4 | E,4 C,4 | %9
 F,4 B,,4 | C,4 D,4 | F,4 E,4 | E,4 A,,4 | B,,4 C,4 | D,4 E,4 | E,4 A,,4 |] %16

